assets/images/icons/logo-venmo-svgrepo-com.svg

<svg fill="#e2bcaf" height="800" viewBox="0 0 512 512" width="800" xmlns="http://www.w3.org/2000/svg"><path d="m444.17 32h-373.89c-20.43 0-38.28 14.7-38.28 34.89v374.71c0 20.31 17.85 38.4 38.28 38.4h373.78c20.54 0 35.94-18.2 35.94-38.39v-374.72c.12-20.19-15.4-34.89-35.83-34.89zm-166.17 355h-103.68l-41.57-248.56 90.75-8.62 22 176.87c20.53-33.45 45.88-86 45.88-121.87 0-19.62-3.36-33-8.61-44l82.63-16.72c9.56 15.78 13.86 32 13.86 52.57-.01 65.5-55.92 150.59-101.26 210.33z"/></svg>

<?xml version="1.0" encoding="utf-8"?><!-- Uploaded to: SVG Repo, www.svgrepo.com, Generator: SVG Repo Mixer Tools -->
<svg fill="#e2bcaf" width="800px" height="800px" viewBox="0 0 512 512" id="Layer_1" data-name="Layer 1" xmlns="http://www.w3.org/2000/svg"><path d="M444.17,32H70.28C49.85,32,32,46.7,32,66.89V441.6C32,461.91,49.85,480,70.28,480H444.06C464.6,480,480,461.8,480,441.61V66.89C480.12,46.7,464.6,32,444.17,32ZM278,387H174.32L132.75,138.44l90.75-8.62,22,176.87c20.53-33.45,45.88-86,45.88-121.87,0-19.62-3.36-33-8.61-44L365.4,124.1c9.56,15.78,13.86,32,13.86,52.57C379.25,242.17,323.34,327.26,278,387Z"/></svg>
